dist/images/icons/stacks/ruby.svg

<svg xmlns="http://www.w3.org/2000/svg" viewBox="-180 272 250 250"><path fill="#f9f9f9" d="M-180 272H70v250h-250z"/><linearGradient id="a" gradientUnits="userSpaceOnUse" x1=".478" y1="482.829" x2="-31.554" y2="426.274"><stop offset="0" stop-color="#f18e71"/><stop offset="0" stop-color="#f18e71"/><stop offset=".41" stop-color="#d84736"/><stop offset=".99" stop-color="#a32423"/><stop offset="1" stop-color="#a32423"/></linearGradient><path fill-rule="evenodd" clip-rule="evenodd" fill="url(#a)" d="M-102 469.1l112.3-7.7 8.6-113.1-34.2 69.3z"/><linearGradient id="b" gradientUnits="userSpaceOnUse" x1="16.436" y1="435.326" x2="-24.845" y2="407.624"><stop offset="0" stop-color="#983626"/><stop offset="0" stop-color="#983626"/><stop offset=".99" stop-color="#9f3529"/><stop offset="1" stop-color="#9f3529"/></linearGradient><path fill-rule="evenodd" clip-rule="evenodd" fill="url(#b)" d="M-25.5 429.5l36 31.9-9.7-66.6z"/><linearGradient id="c" gradientUnits="userSpaceOnUse" x1="-16.593" y1="484.545" x2="-57.874" y2="456.842"><stop offset="0" stop-color="#983626"/><stop offset="0" stop-color="#983626"/><stop offset=".99" stop-color="#9f3529"/><stop offset="1" stop-color="#9f3529"/></linearGradient><path fill-rule="evenodd" clip-rule="evenodd" fill="url(#c)" d="M-101.6 468.9l112.2-7.5-70.7-5.6z"/><linearGradient id="d" gradientUnits="userSpaceOnUse" x1="-103.263" y1="415.275" x2="-96.863" y2="456.865"><stop offset="0" stop-color="#fff"/><stop offset="0" stop-color="#fff"/><stop offset=".23" stop-color="#e28a6e"/><stop offset=".46" stop-color="#d75839"/><stop offset=".99" stop-color="#a61916"/><stop offset="1" stop-color="#a61916"/></linearGradient><path fill-rule="evenodd" clip-rule="evenodd" fill="url(#d)" d="M-122.7 419.4l21.2 49.5 17.7-57.8z"/><linearGradient id="e" gradientUnits="userSpaceOnUse" x1="-59.248" y1="376.437" x2="-56.89" y2="418.883"><stop offset="0" stop-color="#fff"/><stop offset="0" stop-color="#fff"/><stop offset=".23" stop-color="#e18a6a"/><stop offset=".56" stop-color="#be3928"/><stop offset=".99" stop-color="#ae2b21"/><stop offset="1" stop-color="#ae2b21"/></linearGradient><path fill-rule="evenodd" clip-rule="evenodd" fill="url(#e)" d="M-88.2 409.6l62.7 20.1-16.2-63.7z"/><linearGradient id="f" gradientUnits="userSpaceOnUse" x1="-20.187" y1="337.211" x2="-13.128" y2="367.63"><stop offset="0" stop-color="#fff"/><stop offset="0" stop-color="#fff"/><stop offset=".18" stop-color="#df7e5d"/><stop offset=".4" stop-color="#c6412a"/><stop offset=".99" stop-color="#ae2b21"/><stop offset="1" stop-color="#ae2b21"/></linearGradient><path fill-rule="evenodd" clip-rule="evenodd" fill="url(#f)" d="M-41 370.6l56.2-3.7-43.9-35.9z"/><linearGradient id="g" gradientUnits="userSpaceOnUse" x1="-41.742" y1="326.496" x2="-11.324" y2="311.287"><stop offset="0" stop-color="#fff"/><stop offset="0" stop-color="#fff"/><stop offset=".54" stop-color="#c63d2b"/><stop offset=".99" stop-color="#bd2320"/><stop offset="1" stop-color="#bd2320"/></linearGradient><path fill-rule="evenodd" clip-rule="evenodd" fill="url(#g)" d="M-47.5 318l42.2.2-25.9 14.3z"/><linearGradient id="h" gradientUnits="userSpaceOnUse" x1="-129.925" y1="404.672" x2="-127.422" y2="429.738"><stop offset="0" stop-color="#fff"/><stop offset="0" stop-color="#fff"/><stop offset=".31" stop-color="#d85d3d"/><stop offset=".99" stop-color="#be3926"/><stop offset="1" stop-color="#be3926"/></linearGradient><path fill-rule="evenodd" clip-rule="evenodd" fill="url(#h)" d="M-130.8 395.5l-2.1 43.3 10.8-19.7z"/><path d="M-131.4 394.8l8.8 25 38.3-8.6 43.7-40.6 12.3-39.2-19.4-13.7-33 12.4c-10.4 9.7-30.6 28.8-31.3 29.2-.8.3-13.4 24.1-19.4 35.5z" fill-rule="evenodd" clip-rule="evenodd" fill="#fff"/><linearGradient id="i" gradientUnits="userSpaceOnUse" x1="-147.141" y1="436.515" x2="-29.453" y2="315.499"><stop offset="0" stop-color="#bd1818"/><stop offset="0" stop-color="#bd1818"/><stop offset=".07" stop-color="#fff"/><stop offset=".17" stop-color="#fff"/><stop offset=".27" stop-color="#c84d35"/><stop offset=".33" stop-color="#942f26"/><stop offset=".46" stop-color="#ab3822"/><stop offset=".72" stop-color="#b6331f"/><stop offset=".99" stop-color="#d8411d"/><stop offset="1" stop-color="#d8411d"/></linearGradient><path d="M-100.5 349.9c22.6-22.4 51.6-35.6 62.8-24.3 11.2 11.3-.7 38.6-23.2 61-22.6 22.4-51.3 36.3-62.4 25-11.2-11.3.3-39.4 22.8-61.7z" fill-rule="evenodd" clip-rule="evenodd" fill="url(#i)"/><linearGradient id="j" gradientUnits="userSpaceOnUse" x1="-56.992" y1="448.718" x2="-92.438" y2="439.97"><stop offset="0" stop-color="#9b2e25"/><stop offset="0" stop-color="#9b2e25"/><stop offset=".54" stop-color="#a42d23"/><stop offset=".99" stop-color="#ae2b2b"/><stop offset="1" stop-color="#ae2b2b"/></linearGradient><path d="M-101.5 468.9l17.5-58 58.2 18.7c-21 19.7-44.4 36.4-75.7 39.3z" fill-rule="evenodd" clip-rule="evenodd" fill="url(#j)"/><linearGradient id="k" gradientUnits="userSpaceOnUse" x1="3.892" y1="406.173" x2="-27.599" y2="377.948"><stop offset="0" stop-color="#92352b"/><stop offset="0" stop-color="#92352b"/><stop offset=".99" stop-color="#a72d22"/><stop offset="1" stop-color="#a72d22"/></linearGradient><path d="M-40.5 370.4l14.9 59.2c17.6-18.5 33.3-38.3 41.1-62.9l-56 3.7z" fill-rule="evenodd" clip-rule="evenodd" fill="url(#k)"/><linearGradient id="l" gradientUnits="userSpaceOnUse" x1="15.462" y1="354.386" x2="-.225" y2="337.616"><stop offset="0" stop-color="#8e372c"/><stop offset="0" stop-color="#8e372c"/><stop offset=".99" stop-color="#a83429"/><stop offset="1" stop-color="#a83429"/></linearGradient><path d="M15.3 367c6-18 7.4-43.9-20.8-48.7L-28.6 331l43.9 36z" fill-rule="evenodd" clip-rule="evenodd" fill="url(#l)"/><path d="M-132.9 438.5c.8 29.8 22.3 30.2 31.5 30.5l-21.1-49.4-10.4 18.9z" fill-rule="evenodd" clip-rule="evenodd" fill="#a93527"/><radialGradient id="m" cx="-22.696" cy="378.49" r="38.592" gradientUnits="userSpaceOnUse"><stop offset="0" stop-color="#ae2b21"/><stop offset="0" stop-color="#ae2b21"/><stop offset=".99" stop-color="#923229"/><stop offset="1" stop-color="#923229"/></radialGradient><path d="M-40.4 370.5c13.5 8.3 40.7 25 41.3 25.3.9.5 11.7-18.3 14.2-29l-55.5 3.7z" fill-rule="evenodd" clip-rule="evenodd" fill="url(#m)"/><radialGradient id="n" cx="-76.14" cy="429.343" r="51.303" gradientUnits="userSpaceOnUse"><stop offset="0" stop-color="#ab2c21"/><stop offset="0" stop-color="#ab2c21"/><stop offset=".99" stop-color="#94322a"/><stop offset="1" stop-color="#94322a"/></radialGradient><path d="M-84 410.9l23.4 45.2c13.8-7.5 24.7-16.7 34.6-26.5l-58-18.7z" fill-rule="evenodd" clip-rule="evenodd" fill="url(#n)"/><linearGradient id="o" gradientUnits="userSpaceOnUse" x1="-112.478" y1="468.878" x2="-125.262" y2="425.506"><stop offset="0" stop-color="#9b4130"/><stop offset="0" stop-color="#9b4130"/><stop offset=".43" stop-color="#a83129"/><stop offset=".99" stop-color="#b62f28"/><stop offset="1" stop-color="#b62f28"/></linearGradient><path d="M-122.7 419.7l-3.3 39.5c6.3 8.6 14.9 9.3 23.9 8.6-6.5-16.2-19.6-48.7-20.6-48.1z" fill-rule="evenodd" clip-rule="evenodd" fill="url(#o)"/><linearGradient id="p" gradientUnits="userSpaceOnUse" x1="-14.41" y1="325.16" x2="14.251" y2="337.811"><stop offset="0" stop-color="#b62f1f"/><stop offset="0" stop-color="#b62f1f"/><stop offset=".44" stop-color="#9f3228"/><stop offset=".99" stop-color="#8e3f30"/><stop offset="1" stop-color="#8e3f30"/></linearGradient><path d="M-28.8 331.1l46.5 6.5c-2.5-10.5-10.1-17.3-23.1-19.4l-23.4 12.9z" fill-rule="evenodd" clip-rule="evenodd" fill="url(#p)"/></svg>

<?xml version="1.0" encoding="utf-8"?>
<!-- Generator: Adobe Illustrator 19.0.0, SVG Export Plug-In . SVG Version: 6.00 Build 0)  -->
<svg version="1.1" id="Calque_1" xmlns="http://www.w3.org/2000/svg" xmlns:xlink="http://www.w3.org/1999/xlink" x="0px" y="0px"
	 viewBox="-180 272 250 250" style="enable-background:new -180 272 250 250;" xml:space="preserve">
<style type="text/css">
	.st0{fill:#F9F9F9;}
	.st1{fill-rule:evenodd;clip-rule:evenodd;fill:url(#SVGID_1_);}
	.st2{fill-rule:evenodd;clip-rule:evenodd;fill:url(#SVGID_2_);}
	.st3{fill-rule:evenodd;clip-rule:evenodd;fill:url(#SVGID_3_);}
	.st4{fill-rule:evenodd;clip-rule:evenodd;fill:url(#SVGID_4_);}
	.st5{fill-rule:evenodd;clip-rule:evenodd;fill:url(#SVGID_5_);}
	.st6{fill-rule:evenodd;clip-rule:evenodd;fill:url(#SVGID_6_);}
	.st7{fill-rule:evenodd;clip-rule:evenodd;fill:url(#SVGID_7_);}
	.st8{fill-rule:evenodd;clip-rule:evenodd;fill:url(#SVGID_8_);}
	.st9{fill-rule:evenodd;clip-rule:evenodd;fill:#FFFFFF;}
	.st10{fill-rule:evenodd;clip-rule:evenodd;fill:url(#SVGID_9_);}
	.st11{fill-rule:evenodd;clip-rule:evenodd;fill:url(#SVGID_10_);}
	.st12{fill-rule:evenodd;clip-rule:evenodd;fill:url(#SVGID_11_);}
	.st13{fill-rule:evenodd;clip-rule:evenodd;fill:url(#SVGID_12_);}
	.st14{fill-rule:evenodd;clip-rule:evenodd;fill:#A93527;}
	.st15{fill-rule:evenodd;clip-rule:evenodd;fill:url(#SVGID_13_);}
	.st16{fill-rule:evenodd;clip-rule:evenodd;fill:url(#SVGID_14_);}
	.st17{fill-rule:evenodd;clip-rule:evenodd;fill:url(#SVGID_15_);}
	.st18{fill-rule:evenodd;clip-rule:evenodd;fill:url(#SVGID_16_);}
</style>
<rect x="-180" y="272" class="st0" width="250" height="250"/>
<g>
	<linearGradient id="SVGID_1_" gradientUnits="userSpaceOnUse" x1="0.4781" y1="482.8291" x2="-31.5543" y2="426.2741">
		<stop  offset="0" style="stop-color:#F18E71"/>
		<stop  offset="0" style="stop-color:#F18E71"/>
		<stop  offset="0.41" style="stop-color:#D84736"/>
		<stop  offset="0.99" style="stop-color:#A32423"/>
		<stop  offset="1" style="stop-color:#A32423"/>
	</linearGradient>
	<polygon class="st1" points="-102,469.1 10.3,461.4 18.9,348.3 -15.3,417.6 	"/>
	<linearGradient id="SVGID_2_" gradientUnits="userSpaceOnUse" x1="16.4359" y1="435.3258" x2="-24.8453" y2="407.6236">
		<stop  offset="0" style="stop-color:#983626"/>
		<stop  offset="0" style="stop-color:#983626"/>
		<stop  offset="0.99" style="stop-color:#9F3529"/>
		<stop  offset="1" style="stop-color:#9F3529"/>
	</linearGradient>
	<polygon class="st2" points="-25.5,429.5 10.5,461.4 0.8,394.8 	"/>
	<linearGradient id="SVGID_3_" gradientUnits="userSpaceOnUse" x1="-16.5929" y1="484.5447" x2="-57.8741" y2="456.8425">
		<stop  offset="0" style="stop-color:#983626"/>
		<stop  offset="0" style="stop-color:#983626"/>
		<stop  offset="0.99" style="stop-color:#9F3529"/>
		<stop  offset="1" style="stop-color:#9F3529"/>
	</linearGradient>
	<polygon class="st3" points="-101.6,468.9 10.6,461.4 -60.1,455.8 	"/>
	<linearGradient id="SVGID_4_" gradientUnits="userSpaceOnUse" x1="-103.2629" y1="415.2746" x2="-96.8633" y2="456.8655">
		<stop  offset="0" style="stop-color:#FFFFFF"/>
		<stop  offset="0" style="stop-color:#FFFFFF"/>
		<stop  offset="0.23" style="stop-color:#E28A6E"/>
		<stop  offset="0.46" style="stop-color:#D75839"/>
		<stop  offset="0.99" style="stop-color:#A61916"/>
		<stop  offset="1" style="stop-color:#A61916"/>
	</linearGradient>
	<polygon class="st4" points="-122.7,419.4 -101.5,468.9 -83.8,411.1 	"/>
	<linearGradient id="SVGID_5_" gradientUnits="userSpaceOnUse" x1="-59.2478" y1="376.4365" x2="-56.8898" y2="418.8834">
		<stop  offset="0" style="stop-color:#FFFFFF"/>
		<stop  offset="0" style="stop-color:#FFFFFF"/>
		<stop  offset="0.23" style="stop-color:#E18A6A"/>
		<stop  offset="0.56" style="stop-color:#BE3928"/>
		<stop  offset="0.99" style="stop-color:#AE2B21"/>
		<stop  offset="1" style="stop-color:#AE2B21"/>
	</linearGradient>
	<polygon class="st5" points="-88.2,409.6 -25.5,429.7 -41.7,366 	"/>
	<linearGradient id="SVGID_6_" gradientUnits="userSpaceOnUse" x1="-20.187" y1="337.2108" x2="-13.1284" y2="367.6302">
		<stop  offset="0" style="stop-color:#FFFFFF"/>
		<stop  offset="0" style="stop-color:#FFFFFF"/>
		<stop  offset="0.18" style="stop-color:#DF7E5D"/>
		<stop  offset="0.4" style="stop-color:#C6412A"/>
		<stop  offset="0.99" style="stop-color:#AE2B21"/>
		<stop  offset="1" style="stop-color:#AE2B21"/>
	</linearGradient>
	<polygon class="st6" points="-41,370.6 15.2,366.9 -28.7,331 	"/>
	<linearGradient id="SVGID_7_" gradientUnits="userSpaceOnUse" x1="-41.7424" y1="326.4961" x2="-11.3238" y2="311.2868">
		<stop  offset="0" style="stop-color:#FFFFFF"/>
		<stop  offset="0" style="stop-color:#FFFFFF"/>
		<stop  offset="0.54" style="stop-color:#C63D2B"/>
		<stop  offset="0.99" style="stop-color:#BD2320"/>
		<stop  offset="1" style="stop-color:#BD2320"/>
	</linearGradient>
	<polygon class="st7" points="-47.5,318 -5.3,318.2 -31.2,332.5 	"/>
	<linearGradient id="SVGID_8_" gradientUnits="userSpaceOnUse" x1="-129.9253" y1="404.6718" x2="-127.4217" y2="429.7384">
		<stop  offset="0" style="stop-color:#FFFFFF"/>
		<stop  offset="0" style="stop-color:#FFFFFF"/>
		<stop  offset="0.31" style="stop-color:#D85D3D"/>
		<stop  offset="0.99" style="stop-color:#BE3926"/>
		<stop  offset="1" style="stop-color:#BE3926"/>
	</linearGradient>
	<polygon class="st8" points="-130.8,395.5 -132.9,438.8 -122.1,419.1 	"/>
	<path class="st9" d="M-131.4,394.8l8.8,25l38.3-8.6l43.7-40.6l12.3-39.2l-19.4-13.7l-33,12.4c-10.4,9.7-30.6,28.8-31.3,29.2
		C-112.8,359.6-125.4,383.4-131.4,394.8z"/>
	<linearGradient id="SVGID_9_" gradientUnits="userSpaceOnUse" x1="-147.1407" y1="436.5154" x2="-29.4526" y2="315.4991">
		<stop  offset="0" style="stop-color:#BD1818"/>
		<stop  offset="0" style="stop-color:#BD1818"/>
		<stop  offset="7.000000e-002" style="stop-color:#FFFFFF"/>
		<stop  offset="0.17" style="stop-color:#FFFFFF"/>
		<stop  offset="0.27" style="stop-color:#C84D35"/>
		<stop  offset="0.33" style="stop-color:#942F26"/>
		<stop  offset="0.46" style="stop-color:#AB3822"/>
		<stop  offset="0.72" style="stop-color:#B6331F"/>
		<stop  offset="0.99" style="stop-color:#D8411D"/>
		<stop  offset="1" style="stop-color:#D8411D"/>
	</linearGradient>
	<path class="st10" d="M-100.5,349.9c22.6-22.4,51.6-35.6,62.8-24.3c11.2,11.3-0.7,38.6-23.2,61c-22.6,22.4-51.3,36.3-62.4,25
		C-134.5,400.3-123,372.2-100.5,349.9z"/>
	<linearGradient id="SVGID_10_" gradientUnits="userSpaceOnUse" x1="-56.9918" y1="448.7183" x2="-92.4376" y2="439.97">
		<stop  offset="0" style="stop-color:#9B2E25"/>
		<stop  offset="0" style="stop-color:#9B2E25"/>
		<stop  offset="0.54" style="stop-color:#A42D23"/>
		<stop  offset="0.99" style="stop-color:#AE2B2B"/>
		<stop  offset="1" style="stop-color:#AE2B2B"/>
	</linearGradient>
	<path class="st11" d="M-101.5,468.9l17.5-58l58.2,18.7C-46.8,449.3-70.2,466-101.5,468.9z"/>
	<linearGradient id="SVGID_11_" gradientUnits="userSpaceOnUse" x1="3.8919" y1="406.1725" x2="-27.5994" y2="377.9478">
		<stop  offset="0" style="stop-color:#92352B"/>
		<stop  offset="0" style="stop-color:#92352B"/>
		<stop  offset="0.99" style="stop-color:#A72D22"/>
		<stop  offset="1" style="stop-color:#A72D22"/>
	</linearGradient>
	<path class="st12" d="M-40.5,370.4l14.9,59.2c17.6-18.5,33.3-38.3,41.1-62.9L-40.5,370.4z"/>
	<linearGradient id="SVGID_12_" gradientUnits="userSpaceOnUse" x1="15.4617" y1="354.3864" x2="-0.2251" y2="337.6161">
		<stop  offset="0" style="stop-color:#8E372C"/>
		<stop  offset="0" style="stop-color:#8E372C"/>
		<stop  offset="0.99" style="stop-color:#A83429"/>
		<stop  offset="1" style="stop-color:#A83429"/>
	</linearGradient>
	<path class="st13" d="M15.3,367c6-18,7.4-43.9-20.8-48.7L-28.6,331L15.3,367z"/>
	<path class="st14" d="M-132.9,438.5c0.8,29.8,22.3,30.2,31.5,30.5l-21.1-49.4L-132.9,438.5z"/>
	<radialGradient id="SVGID_13_" cx="-22.6961" cy="378.4899" r="38.5923" gradientUnits="userSpaceOnUse">
		<stop  offset="0" style="stop-color:#AE2B21"/>
		<stop  offset="0" style="stop-color:#AE2B21"/>
		<stop  offset="0.99" style="stop-color:#923229"/>
		<stop  offset="1" style="stop-color:#923229"/>
	</radialGradient>
	<path class="st15" d="M-40.4,370.5c13.5,8.3,40.7,25,41.3,25.3c0.9,0.5,11.7-18.3,14.2-29L-40.4,370.5z"/>
	<radialGradient id="SVGID_14_" cx="-76.1398" cy="429.3434" r="51.3033" gradientUnits="userSpaceOnUse">
		<stop  offset="0" style="stop-color:#AB2C21"/>
		<stop  offset="0" style="stop-color:#AB2C21"/>
		<stop  offset="0.99" style="stop-color:#94322A"/>
		<stop  offset="1" style="stop-color:#94322A"/>
	</radialGradient>
	<path class="st16" d="M-84,410.9l23.4,45.2c13.8-7.5,24.7-16.7,34.6-26.5L-84,410.9z"/>
	<linearGradient id="SVGID_15_" gradientUnits="userSpaceOnUse" x1="-112.4781" y1="468.8777" x2="-125.262" y2="425.5058">
		<stop  offset="0" style="stop-color:#9B4130"/>
		<stop  offset="0" style="stop-color:#9B4130"/>
		<stop  offset="0.43" style="stop-color:#A83129"/>
		<stop  offset="0.99" style="stop-color:#B62F28"/>
		<stop  offset="1" style="stop-color:#B62F28"/>
	</linearGradient>
	<path class="st17" d="M-122.7,419.7l-3.3,39.5c6.3,8.6,14.9,9.3,23.9,8.6C-108.6,451.6-121.7,419.1-122.7,419.7z"/>
	<linearGradient id="SVGID_16_" gradientUnits="userSpaceOnUse" x1="-14.4099" y1="325.1601" x2="14.2507" y2="337.8113">
		<stop  offset="0" style="stop-color:#B62F1F"/>
		<stop  offset="0" style="stop-color:#B62F1F"/>
		<stop  offset="0.44" style="stop-color:#9F3228"/>
		<stop  offset="0.99" style="stop-color:#8E3F30"/>
		<stop  offset="1" style="stop-color:#8E3F30"/>
	</linearGradient>
	<path class="st18" d="M-28.8,331.1l46.5,6.5c-2.5-10.5-10.1-17.3-23.1-19.4L-28.8,331.1z"/>
</g>
</svg>
